Newaita/actions/22/tab-close.svg

<svg height="22" viewBox="0 0 22 22" width="22" xmlns="http://www.w3.org/2000/svg"><path d="m1.820312 15.636719h10.003907c.25 0 .457031.203125.457031.453125s-.207031.453125-.457031.453125h-10.003907c-.253906 0-.457031-.203125-.457031-.453125s.203125-.453125.457031-.453125zm0 0" fill="#424242"/><path d="m19.753906 18.535156-.644531.644532c-.175781.175781-.464844.175781-.640625 0l-4.503906-4.503907c-.175782-.175781-.175782-.464843 0-.640625l.644531-.644531c.175781-.175781.464844-.175781.640625 0l4.503906 4.503906c.179688.175781.179688.464844 0 .640625zm0 0" fill="#f44336"/><path d="m14.609375 19.179688-.644531-.644532c-.175782-.175781-.175782-.464844 0-.640625l4.503906-4.503906c.175781-.175781.464844-.175781.640625 0l.644531.644531c.179688.175782.179688.464844 0 .640625l-4.503906 4.503907c-.175781.175781-.464844.175781-.640625 0zm0 0" fill="#f44336"/><path d="m3.636719 3.808594c-1.007813 0-1.816407.8125-1.816407 1.820312v9.097656h1.816407v-8.1875c0-.503906.40625-.910156.910156-.910156h12.734375c.503906 0 .910156.40625.910156.910156v4.546876h1.820313v-5.457032c0-1.007812-.8125-1.820312-1.820313-1.820312zm0 0" fill="#424242"/></svg>

<?xml version="1.0" encoding="UTF-8"?>
<svg xmlns="http://www.w3.org/2000/svg" xmlns:xlink="http://www.w3.org/1999/xlink" width="22px" height="22px" viewBox="0 0 22 22" version="1.1">
<g id="surface1">
<path style=" stroke:none;fill-rule:nonzero;fill:rgb(25.882354%,25.882354%,25.882354%);fill-opacity:1;" d="M 1.820312 15.636719 L 11.824219 15.636719 C 12.074219 15.636719 12.28125 15.839844 12.28125 16.089844 C 12.28125 16.339844 12.074219 16.542969 11.824219 16.542969 L 1.820312 16.542969 C 1.566406 16.542969 1.363281 16.339844 1.363281 16.089844 C 1.363281 15.839844 1.566406 15.636719 1.820312 15.636719 Z M 1.820312 15.636719 "/>
<path style=" stroke:none;fill-rule:nonzero;fill:rgb(95.686275%,26.274511%,21.176471%);fill-opacity:1;" d="M 19.753906 18.535156 L 19.109375 19.179688 C 18.933594 19.355469 18.644531 19.355469 18.46875 19.179688 L 13.964844 14.675781 C 13.789062 14.5 13.789062 14.210938 13.964844 14.035156 L 14.609375 13.390625 C 14.785156 13.214844 15.074219 13.214844 15.25 13.390625 L 19.753906 17.894531 C 19.933594 18.070312 19.933594 18.359375 19.753906 18.535156 Z M 19.753906 18.535156 "/>
<path style=" stroke:none;fill-rule:nonzero;fill:rgb(95.686275%,26.274511%,21.176471%);fill-opacity:1;" d="M 14.609375 19.179688 L 13.964844 18.535156 C 13.789062 18.359375 13.789062 18.070312 13.964844 17.894531 L 18.46875 13.390625 C 18.644531 13.214844 18.933594 13.214844 19.109375 13.390625 L 19.753906 14.035156 C 19.933594 14.210938 19.933594 14.5 19.753906 14.675781 L 15.25 19.179688 C 15.074219 19.355469 14.785156 19.355469 14.609375 19.179688 Z M 14.609375 19.179688 "/>
<path style=" stroke:none;fill-rule:nonzero;fill:rgb(25.882354%,25.882354%,25.882354%);fill-opacity:1;" d="M 3.636719 3.808594 C 2.628906 3.808594 1.820312 4.621094 1.820312 5.628906 L 1.820312 14.726562 L 3.636719 14.726562 L 3.636719 6.539062 C 3.636719 6.035156 4.042969 5.628906 4.546875 5.628906 L 17.28125 5.628906 C 17.785156 5.628906 18.191406 6.035156 18.191406 6.539062 L 18.191406 11.085938 L 20.011719 11.085938 L 20.011719 5.628906 C 20.011719 4.621094 19.199219 3.808594 18.191406 3.808594 Z M 3.636719 3.808594 "/>
</g>
</svg>
